souls/img/inst.svg

<svg width="22" height="22" viewBox="0 0 22 22" fill="none" xmlns="http://www.w3.org/2000/svg">
<path d="M14.6667 11C14.6667 9.98785 14.3086 9.1237 13.5924 8.40755C12.8763 7.69141 12.0122 7.33333 11 7.33333C9.98785 7.33333 9.1237 7.69141 8.40755 8.40755C7.69141 9.1237 7.33333 9.98785 7.33333 11C7.33333 12.0122 7.69141 12.8763 8.40755 13.5924C9.1237 14.3086 9.98785 14.6667 11 14.6667C12.0122 14.6667 12.8763 14.3086 13.5924 13.5924C14.3086 12.8763 14.6667 12.0122 14.6667 11ZM16.6432 11C16.6432 12.566 16.0942 13.898 14.9961 14.9961C13.898 16.0942 12.566 16.6432 11 16.6432C9.43403 16.6432 8.102 16.0942 7.00391 14.9961C5.90582 13.898 5.35677 12.566 5.35677 11C5.35677 9.43403 5.90582 8.102 7.00391 7.00391C8.102 5.90582 9.43403 5.35677 11 5.35677C12.566 5.35677 13.898 5.90582 14.9961 7.00391C16.0942 8.102 16.6432 9.43403 16.6432 11ZM18.1901 5.1276C18.1901 5.49045 18.0612 5.80078 17.8034 6.05859C17.5456 6.31641 17.2352 6.44531 16.8724 6.44531C16.5095 6.44531 16.1992 6.31641 15.9414 6.05859C15.6836 5.80078 15.5547 5.49045 15.5547 5.1276C15.5547 4.76476 15.6836 4.45443 15.9414 4.19661C16.1992 3.9388 16.5095 3.8099 16.8724 3.8099C17.2352 3.8099 17.5456 3.9388 17.8034 4.19661C18.0612 4.45443 18.1901 4.76476 18.1901 5.1276ZM11 1.97656C10.9332 1.97656 10.5679 1.97418 9.9043 1.9694C9.24067 1.96463 8.73698 1.96463 8.39323 1.9694C8.04948 1.97418 7.58876 1.9885 7.01107 2.01237C6.43338 2.03624 5.94162 2.08398 5.53581 2.1556C5.12999 2.22721 4.78863 2.31554 4.51172 2.42057C4.03429 2.61155 3.61415 2.88845 3.2513 3.2513C2.88845 3.61415 2.61155 4.03429 2.42057 4.51172C2.31554 4.78863 2.22721 5.12999 2.1556 5.53581C2.08398 5.94162 2.03624 6.43338 2.01237 7.01107C1.9885 7.58876 1.97418 8.04948 1.9694 8.39323C1.96463 8.73698 1.96463 9.24067 1.9694 9.9043C1.97418 10.5679 1.97656 10.9332 1.97656 11C1.97656 11.0668 1.97418 11.4321 1.9694 12.0957C1.96463 12.7593 1.96463 13.263 1.9694 13.6068C1.97418 13.9505 1.9885 14.4112 2.01237 14.9889C2.03624 15.5666 2.08398 16.0584 2.1556 16.4642C2.22721 16.87 2.31554 17.2114 2.42057 17.4883C2.61155 17.9657 2.88845 18.3859 3.2513 18.7487C3.61415 19.1115 4.03429 19.3885 4.51172 19.5794C4.78863 19.6845 5.12999 19.7728 5.53581 19.8444C5.94162 19.916 6.43338 19.9638 7.01107 19.9876C7.58876 20.0115 8.04948 20.0258 8.39323 20.0306C8.73698 20.0354 9.24067 20.0354 9.9043 20.0306C10.5679 20.0258 10.9332 20.0234 11 20.0234C11.0668 20.0234 11.4321 20.0258 12.0957 20.0306C12.7593 20.0354 13.263 20.0354 13.6068 20.0306C13.9505 20.0258 14.4112 20.0115 14.9889 19.9876C15.5666 19.9638 16.0584 19.916 16.4642 19.8444C16.87 19.7728 17.2114 19.6845 17.4883 19.5794C17.9657 19.3885 18.3859 19.1115 18.7487 18.7487C19.1115 18.3859 19.3885 17.9657 19.5794 17.4883C19.6845 17.2114 19.7728 16.87 19.8444 16.4642C19.916 16.0584 19.9638 15.5666 19.9876 14.9889C20.0115 14.4112 20.0258 13.9505 20.0306 13.6068C20.0354 13.263 20.0354 12.7593 20.0306 12.0957C20.0258 11.4321 20.0234 11.0668 20.0234 11C20.0234 10.9332 20.0258 10.5679 20.0306 9.9043C20.0354 9.24067 20.0354 8.73698 20.0306 8.39323C20.0258 8.04948 20.0115 7.58876 19.9876 7.01107C19.9638 6.43338 19.916 5.94162 19.8444 5.53581C19.7728 5.12999 19.6845 4.78863 19.5794 4.51172C19.3885 4.03429 19.1115 3.61415 18.7487 3.2513C18.3859 2.88845 17.9657 2.61155 17.4883 2.42057C17.2114 2.31554 16.87 2.22721 16.4642 2.1556C16.0584 2.08398 15.5666 2.03624 14.9889 2.01237C14.4112 1.9885 13.9505 1.97418 13.6068 1.9694C13.263 1.96463 12.7593 1.96463 12.0957 1.9694C11.4321 1.97418 11.0668 1.97656 11 1.97656ZM22 11C22 13.1866 21.9761 14.7001 21.9284 15.5404C21.8329 17.5265 21.2409 19.0638 20.1523 20.1523C19.0638 21.2409 17.5265 21.8329 15.5404 21.9284C14.7001 21.9761 13.1866 22 11 22C8.81337 22 7.29991 21.9761 6.45964 21.9284C4.47352 21.8329 2.9362 21.2409 1.84766 20.1523C0.759115 19.0638 0.167101 17.5265 0.0716146 15.5404C0.0238715 14.7001 0 13.1866 0 11C0 8.81337 0.0238715 7.29991 0.0716146 6.45964C0.167101 4.47352 0.759115 2.9362 1.84766 1.84766C2.9362 0.759115 4.47352 0.167101 6.45964 0.0716146C7.29991 0.0238715 8.81337 0 11 0C13.1866 0 14.7001 0.0238715 15.5404 0.0716146C17.5265 0.167101 19.0638 0.759115 20.1523 1.84766C21.2409 2.9362 21.8329 4.47352 21.9284 6.45964C21.9761 7.29991 22 8.81337 22 11Z" fill="black"/>
</svg>

<svg xmlns="http://www.w3.org/2000/svg" width="22" height="22" fill="none"><path fill="#000" d="M14.667 11a3.53 3.53 0 0 0-1.075-2.592A3.53 3.53 0 0 0 11 7.333a3.53 3.53 0 0 0-2.592 1.075A3.53 3.53 0 0 0 7.333 11q0 1.518 1.075 2.592A3.53 3.53 0 0 0 11 14.667a3.53 3.53 0 0 0 2.592-1.075A3.53 3.53 0 0 0 14.667 11m1.976 0q0 2.349-1.647 3.996T11 16.643t-3.996-1.647T5.357 11t1.647-3.996T11 5.357t3.996 1.647T16.643 11m1.547-5.872q0 .544-.387.93a1.27 1.27 0 0 1-.93.387q-.545 0-.932-.386a1.27 1.27 0 0 1-.386-.931q0-.545.386-.931.387-.387.931-.387.545 0 .931.387.387.386.387.93M11 1.977l-1.096-.008a78 78 0 0 0-1.51 0q-.517.008-1.383.043a11 11 0 0 0-1.475.144q-.609.107-1.024.265a3.7 3.7 0 0 0-1.26.83q-.545.544-.831 1.26a5.7 5.7 0 0 0-.265 1.025q-.108.608-.144 1.475a53 53 0 0 0-.043 1.382q-.006.516 0 1.511L1.977 11l-.008 1.096a78 78 0 0 0 0 1.51q.008.517.043 1.383.036.867.144 1.475t.265 1.024q.285.717.83 1.26.544.544 1.26.831.417.158 1.025.265t1.475.144q.867.036 1.382.043.516.006 1.511 0L11 20.023l1.096.008a77 77 0 0 0 1.51 0q.517-.008 1.383-.043.867-.036 1.475-.144t1.024-.265q.717-.286 1.26-.83.544-.544.831-1.26.158-.416.265-1.025.108-.608.144-1.475t.043-1.382a77 77 0 0 0 0-1.511L20.023 11l.008-1.096q.006-.995 0-1.51-.008-.517-.043-1.383a11 11 0 0 0-.144-1.475 5.7 5.7 0 0 0-.265-1.024 3.7 3.7 0 0 0-.83-1.26 3.7 3.7 0 0 0-1.26-.831 5.7 5.7 0 0 0-1.025-.265 11 11 0 0 0-1.475-.144 53 53 0 0 0-1.382-.043 78 78 0 0 0-1.511 0zM22 11q0 3.28-.072 4.54-.142 2.98-1.776 4.612-1.633 1.633-4.612 1.776Q14.28 22 11 22t-4.54-.072q-2.98-.142-4.612-1.776Q.215 18.52.072 15.54 0 14.28 0 11t.072-4.54q.143-2.98 1.776-4.612T6.46.072Q7.72 0 11 0t4.54.072q2.98.143 4.612 1.776t1.776 4.612Q22 7.72 22 11"/></svg>
